assets/images/icons/discord.svg

<svg xmlns="http://www.w3.org/2000/svg" width="24" height="24" fill="none"><path d="M17.712 20.8l-1.356-1.697c2.692-.775 3.72-2.493 3.72-2.493-.842.566-1.644.964-2.363 1.236-1.027.44-2.014.733-2.98.9-1.973.377-3.78.272-5.322-.02-1.17-.23-2.178-.566-3.02-.9a11.93 11.93 0 0 1-1.5-.712c-.062-.042-.123-.063-.185-.105-.04-.02-.062-.042-.082-.063l-.575-.356s.986 1.676 3.596 2.472L6.267 20.8C1.726 20.653 0 17.615 0 17.615 0 10.87 2.96 5.4 2.96 5.4c2.96-2.263 5.774-2.2 5.774-2.2l.205.25c-3.7 1.1-5.404 2.745-5.404 2.745s.452-.25 1.212-.608c2.2-.985 3.945-1.257 4.664-1.32.123-.02.226-.042.35-.042 1.253-.168 2.67-.2 4.15-.042a16.52 16.52 0 0 1 6.185 2.011s-1.623-1.57-5.116-2.66l.288-.335s2.815-.063 5.774 2.2c0 0 2.96 5.47 2.96 12.215 0 0-1.747 3.038-6.288 3.185zm-9.555-9.785c-1.17 0-2.096 1.048-2.096 2.326s.945 2.326 2.096 2.326c1.17 0 2.096-1.048 2.096-2.326.02-1.278-.925-2.326-2.096-2.326zm7.5 0c-1.17 0-2.096 1.048-2.096 2.326s.945 2.326 2.096 2.326c1.17 0 2.096-1.048 2.096-2.326s-.925-2.326-2.096-2.326z" fill="#f2f1ff"/></svg>

<svg id="28f8ec2b-94c6-4e26-ba13-ffba864e59e6" data-name="Layer 1" xmlns="http://www.w3.org/2000/svg" viewBox="0 0 24 24"><title>discord</title><path d="M17.71,20.8s-.74-.9-1.36-1.7a6.49,6.49,0,0,0,3.72-2.49,11.67,11.67,0,0,1-2.36,1.24,13.33,13.33,0,0,1-3,.9,14.12,14.12,0,0,1-5.32,0,17,17,0,0,1-3-.9,11.93,11.93,0,0,1-1.5-.71L4.71,17a.28.28,0,0,1-.08-.06c-.37-.21-.58-.36-.58-.36a6.4,6.4,0,0,0,3.6,2.47c-.62.8-1.38,1.74-1.38,1.74A7.43,7.43,0,0,1,0,17.62,28.48,28.48,0,0,1,3,5.4,10,10,0,0,1,8.73,3.2l.21.25A13.78,13.78,0,0,0,3.53,6.2S4,5.94,4.75,5.59A15.19,15.19,0,0,1,9.41,4.27a2,2,0,0,1,.35,0,17.05,17.05,0,0,1,4.15,0,16.52,16.52,0,0,1,6.18,2A13.6,13.6,0,0,0,15,3.54l.29-.34A10,10,0,0,1,21,5.4a28.48,28.48,0,0,1,3,12.22A7.49,7.49,0,0,1,17.71,20.8ZM8.16,11a2.21,2.21,0,0,0-2.1,2.33,2.23,2.23,0,0,0,2.1,2.33,2.21,2.21,0,0,0,2.1-2.33A2.2,2.2,0,0,0,8.16,11Zm7.5,0a2.21,2.21,0,0,0-2.1,2.33,2.23,2.23,0,0,0,2.1,2.33,2.21,2.21,0,0,0,2.1-2.33A2.21,2.21,0,0,0,15.66,11Z" style="fill:#f2f1ff"/></svg>
